packages/Snappmarket/src/GridIcon/index.svg

<svg
  style="width:15px;height:15px"
  version="1.1"
  xmlns="http://www.w3.org/2000/svg"
  width="32"
  height="32"
  viewBox="0 0 32 32"
  id="GridIcon"
>
  <title>categories</title>
  <path d="M11.345 0.087h-11.345v13.673h13.673v-13.673zM2.327 11.433h9.018v-9.018h-9.018zM28.8 0h-11.345v13.673h13.673v-13.673zM19.782 11.345h9.018v-9.018h-9.018zM11.345 17.542h-11.345v13.673h13.673v-13.673zM2.327 28.887h9.018v-9.018h-9.018zM28.8 17.455h-11.345v13.673h13.673v-13.673zM19.782 28.8h9.018v-9.018h-9.018z"/>
</svg>

<svg xmlns="http://www.w3.org/2000/svg" viewBox="0 0 32 32">
  <path d="M11.345.087H0V13.76h13.673V.087zM2.327 11.433h9.018V2.415H2.327zM28.8 0H17.455v13.673h13.673V0zm-9.018 11.345H28.8V2.327h-9.018zm-8.437 6.197H0v13.673h13.673V17.542zM2.327 28.887h9.018v-9.018H2.327zM28.8 17.455H17.455v13.673h13.673V17.455zM19.782 28.8H28.8v-9.018h-9.018z"/>
</svg>
